icons/twitter.svg

<svg width="21px" height="21px" viewBox="0 0 21 21" version="1.1" xmlns="http://www.w3.org/2000/svg" xmlns:xlink="http://www.w3.org/1999/xlink">
    <g id="Page-1" stroke="none" stroke-width="1" fill="none" fill-rule="evenodd">
        <g id="Company-List-View-1440" transform="translate(-922.000000, -604.000000)" fill-rule="nonzero">
            <g id="twitter" transform="translate(922.000000, 604.000000)">
                <circle id="Oval" fill="#1DA1F2" cx="10.5" cy="10.5" r="10.5"></circle>
                <path d="M8.5785,16.03875 C13.23525,16.03875 15.7815,12.18 15.7815,8.83575 C15.7815,8.7255 15.7815,8.61525 15.77625,8.51025 C16.26975,8.15325 16.70025,7.707 17.0415,7.19775 C16.59,7.39725 16.10175,7.53375 15.58725,7.59675 C16.11225,7.28175 16.51125,6.78825 16.70025,6.195 C16.212,6.48375 15.67125,6.69375 15.09375,6.80925 C14.63175,6.31575 13.9755,6.01125 13.24575,6.01125 C11.84925,6.01125 10.71525,7.14525 10.71525,8.54175 C10.71525,8.74125 10.73625,8.9355 10.7835,9.11925 C8.67825,9.01425 6.8145,8.00625 5.565,6.47325 C5.34975,6.846 5.22375,7.28175 5.22375,7.74375 C5.22375,8.6205 5.67,9.3975 6.3525,9.849 C5.93775,9.8385 5.54925,9.723 5.208,9.534 L5.208,9.5655 C5.208,10.794 6.0795,11.8125 7.23975,12.04875 C7.02975,12.1065 6.804,12.138 6.573,12.138 C6.41025,12.138 6.25275,12.12225 6.09525,12.09075 C6.4155,13.09875 7.35,13.8285 8.45775,13.8495 C7.5915,14.52675 6.4995,14.931 5.313,14.931 C5.10825,14.931 4.90875,14.9205 4.70925,14.89425 C5.817,15.61875 7.1505,16.03875 8.5785,16.03875" id="Shape" fill="#FFFFFF"></path>
            </g>
        </g>
    </g>
</svg>

<?xml version="1.0" encoding="UTF-8" standalone="no"?><!DOCTYPE svg PUBLIC "-//W3C//DTD SVG 1.1//EN" "http://www.w3.org/Graphics/SVG/1.1/DTD/svg11.dtd"><svg width="100%" height="100%" viewBox="0 0 21 21" version="1.1" xmlns="http://www.w3.org/2000/svg" xmlns:xlink="http://www.w3.org/1999/xlink" xml:space="preserve" xmlns:serif="http://www.serif.com/" style="fill-rule:evenodd;clip-rule:evenodd;stroke-linejoin:round;stroke-miterlimit:1.41421;"><g id="twitter"><path d="M10.5,0c5.795,0 10.5,4.705 10.5,10.5c0,5.795 -4.705,10.5 -10.5,10.5c-5.795,0 -10.5,-4.705 -10.5,-10.5c0,-5.795 4.705,-10.5 10.5,-10.5Zm-1.922,16.039c4.657,0 7.204,-3.859 7.204,-7.203c-0.001,-0.111 -0.001,-0.221 -0.006,-0.326c0.494,-0.357 0.924,-0.803 1.265,-1.312c-0.451,0.199 -0.939,0.336 -1.454,0.399c0.525,-0.315 0.924,-0.809 1.113,-1.402c-0.488,0.289 -1.029,0.499 -1.606,0.614c-0.462,-0.493 -1.118,-0.798 -1.848,-0.798c-1.397,0 -2.531,1.134 -2.531,2.531c0,0.199 0.021,0.393 0.069,0.577c-2.106,-0.105 -3.969,-1.113 -5.219,-2.646c-0.215,0.373 -0.341,0.809 -0.341,1.271c0,0.876 0.446,1.653 1.129,2.105c-0.415,-0.011 -0.804,-0.126 -1.145,-0.315l0,0.031c0,1.229 0.872,2.247 2.032,2.484c-0.21,0.057 -0.436,0.089 -0.667,0.089c-0.163,0 -0.32,-0.016 -0.478,-0.047c0.321,1.008 1.255,1.737 2.363,1.758c-0.866,0.678 -1.958,1.082 -3.145,1.082c-0.205,0 -0.404,-0.011 -0.604,-0.037c1.108,0.725 2.442,1.145 3.87,1.145Z" style="fill:#1da1f2;"/></g></svg>
